X: 223
T:the House of Park
B:William Marshall's Scottish Airs, Melodies, Strathspeys, Reels &c (1822)
C:William Marshall
L:1/8
M:C
O:Scotland
R:Reel
Z:Clark Bernst + Richard Robinson
%%Page:51 - 2
F:http://richardrobinson.tunebook.org.uk/tune/4066
%%TBL:{"version":1,"type":"tune","id":"4066"}
K:F
%%staves {1 2}
V:1
B | \
(AB/c/) cA (Bc/d/) dB | cAFA G2 (GB) | \
(AB/c/) cA (Bc/d/) df | c<Af>A F2 F :|f | \
affa geeg | fdcA G2 (Gf) | affa geeg | c<Af>A F2 (Ff) |
affa geeg | fdcA G2 (Gf) | afaf gege | f<dc>A {E}F2 F |]
V:2 middle=d clef=bass
L:1/4
z/ | fabb | afcc | fabb | c'cff/ :| \
z/ | fac'b | afcc | fac'b | ac'ff | fac'b | afcc | ffcc | Bc FF/ |]

